layouts/icon-pack/spell_frost_wall.svg

<?xml version="1.0" encoding="UTF-8"?>
<svg width="1200pt" height="1200pt" version="1.1" viewBox="0 0 1200 1200" xmlns="http://www.w3.org/2000/svg">
 <g fill="#fff">
  <path d="m377.65 79.031c6.375 21.727 20.859 53.906 52.969 72.492 1.293 0.77344 2.0938 2.1641 2.1172 3.6719 0.023437 1.5078-0.73047 2.918-2 3.7344-25.48 14.727-42.805 40.32-47.016 69.445-0.14062 1.8086-1.5664 3.25-3.3711 3.418-1.8047 0.16797-3.4688-0.98828-3.9414-2.7383-7.7344-21.703-24.094-54.328-54.75-66.539-1.5156-0.65234-2.5312-2.1055-2.625-3.7539-0.09375-1.6445 0.75-3.2031 2.1797-4.0273 14.883-7.5938 40.5-27.352 49.078-75.328 0.18359-1.832 1.6797-3.2578 3.5195-3.3516s3.4727 1.1719 3.8398 2.9766z"/>
  <path d="m831.59 98.156c5.2734 22.008 18.117 54.773 49.219 75 1.2422 0.83984 1.9648 2.2617 1.9141 3.7617s-0.87109 2.8672-2.1719 3.6211c-26.18 13.457-44.77 38.148-50.461 67.031-0.26563 1.7656-1.7461 3.0977-3.5312 3.1719-1.7852 0.074218-3.3711-1.1289-3.7812-2.8672-6.6562-22.055-21.352-55.477-51.352-69.211-1.4844-0.73047-2.4219-2.2383-2.4219-3.8906 0-1.6523 0.9375-3.1602 2.4219-3.8906 15.234-6.8203 41.859-25.242 52.781-72.727 0.25391-1.8438 1.832-3.2148 3.6914-3.2148s3.4375 1.3711 3.6914 3.2148z"/>
  <path d="m552.42 835.55 29.977 45.539c1.3242 2.0039 3.6953 3.0547 6.0703 2.6914 2.375-0.35938 4.3242-2.0703 4.9922-4.3789l111.33-387.35 25.406-97.172c0.59766-2.1953-0.25-4.5312-2.1133-5.8359-1.8672-1.3008-4.3516-1.293-6.207 0.023438l-70.781 50.602c-4.2383 3.0312-7.2617 7.4648-8.5312 12.516-12.445 49.383-80.062 318.07-92.695 368.27-1.3086 5.168-0.37891 10.645 2.5547 15.094z"/>
  <path d="m732.47 313.76-83.883-156.73c-1.2656-2.3906-4.0195-3.582-6.6289-2.875s-4.3828 3.125-4.2695 5.8281l7.4062 207.98c0.13281 3.6406 2.2578 6.918 5.5273 8.5273 3.2695 1.6094 7.1602 1.2969 10.129-0.81641l68.742-49.219c4.0312-2.8945 5.3047-8.3203 2.9766-12.703z"/>
  <path d="m431.84 652.38 72.07 109.52c1.6445 2.4648 4.5859 3.7266 7.5 3.2188 2.918-0.50781 5.2617-2.6875 5.9766-5.5625l76.406-304.24c0.87109-3.4844 0.52734-7.1602-0.98437-10.418-1.5078-3.2617-4.0898-5.9023-7.3125-7.4883l-151.9-74.742c-2.6914-1.3281-5.8828-1.1562-8.4141 0.46094-2.5312 1.6133-4.0352 4.4375-3.9609 7.4375l6.3516 268.22c0.12109 4.8398 1.6016 9.5508 4.2656 13.594z"/>
  <path d="m257.98 1123.9h83.789c2.457 0.003906 4.7695-1.1641 6.2188-3.1484 1.4531-1.9844 1.8672-4.543 1.1172-6.8828l-39.469-123.07c-1.0039-3.1367-3.8945-5.2812-7.1836-5.3398-3.293-0.058594-6.2578 1.9844-7.3711 5.082l-44.297 123.07c-0.84375 2.3477-0.49609 4.9609 0.93359 7.0078 1.4297 2.0469 3.7656 3.2695 6.2617 3.2812z"/>
  <path d="m1063.4 584.72 43.875-143.81c2.8594-9.3828 2.293-19.473-1.5938-28.477l-99.609-230.34c-1.5078-3.4727-4.2539-6.2617-7.7031-7.8203s-7.3555-1.7773-10.957-0.61328c-3.6016 1.1641-6.6406 3.6289-8.5273 6.9102l-129.07 225.19c-2.1602 3.7773-2.9219 8.1953-2.1562 12.48 0.76953 4.2852 3.0156 8.1602 6.3516 10.957l191.79 160.69c2.8242 2.3711 6.6445 3.1719 10.184 2.1367 3.5352-1.0352 6.3203-3.7734 7.418-7.293z"/>
  <path d="m412.76 708c-1.9531-2.9609-5.4062-4.5664-8.9258-4.1484-3.5234 0.41797-6.5078 2.7852-7.7148 6.1172l-63.75 179.06c-2.2266 6.2422-2.3438 13.043-0.32813 19.359l66.398 206.84c1.6719 5.1875 6.5039 8.7031 11.953 8.6953h103.41c5.5859-0.007813 10.496-3.7031 12.047-9.0703l44.273-154.05c1.7656-6.1289 0.76562-12.723-2.7422-18.047z"/>
  <path d="m206.25 443.37 117.19-85.711c3.9414-2.8711 6.6406-7.1289 7.5547-11.918 0.91406-4.7891-0.027344-9.7461-2.6328-13.863l-99.141-157.03c-2.7891-4.4297-7.6562-7.1172-12.891-7.1172s-10.102 2.6875-12.891 7.1172l-114.14 184.38c-2.4805 4.0117-3.3164 8.8281-2.3281 13.441 0.98828 4.6094 3.7188 8.6641 7.625 11.309l88.219 59.789c3.4688 2.3594 7.5859 3.5859 11.781 3.5156s8.2695-1.4375 11.656-3.9141z"/>
  <path d="m202.57 1110.1 140.25-389.46c3.2812-9.082 5.0625-18.637 5.2734-28.289l5.8125-267.98c0.082031-3.9375-1.3125-7.7617-3.9062-10.723-2.5977-2.9609-6.2031-4.8438-10.117-5.2812-3.9141-0.43359-7.8477 0.60938-11.031 2.9258l-100.95 73.852c-7.2891 5.3281-12.188 13.309-13.641 22.219l-79.219 488.25c-2.6484 16.383-3.1367 33.039-1.4531 49.547l6.0469 59.016c0.54688 5.4141 3.082 10.43 7.1211 14.074 4.0352 3.6484 9.2812 5.6641 14.723 5.6602h21.445c4.2969 0.003906 8.4922-1.3164 12.008-3.7891 3.5156-2.4727 6.1836-5.9688 7.6328-10.016z"/>
  <path d="m71.297 438.89 35.812 422.95c0.28516 2.918 2.6992 5.1641 5.6328 5.2422 2.9297 0.078124 5.457-2.0391 5.8984-4.9375l48.867-354.63c0.67578-4.9023-0.03125-9.8984-2.0469-14.422-2.0117-4.5234-5.25-8.3906-9.3438-11.172l-73.359-49.758c-2.3516-1.5938-5.4062-1.6914-7.8555-0.25391-2.4453 1.4375-3.8516 4.1523-3.6055 6.9805z"/>
  <path d="m971.16 1123.9h135.61c5.8281 0.007813 11.414-2.3047 15.535-6.4258 4.1211-4.1211 6.4336-9.707 6.4258-15.535v-522.8c0.019532-3.6523-2.6484-6.7617-6.2578-7.2969-3.6133-0.53516-7.0664 1.6641-8.1094 5.1641l-159.96 524.25c-1.6289 5.3125-0.64063 11.082 2.668 15.547 3.3047 4.4688 8.5352 7.1016 14.09 7.0938z"/>
  <path d="m855.47 491.25c-2.4453-2.0508-5.8867-2.4297-8.7227-0.96875-2.8359 1.4648-4.5156 4.4883-4.2617 7.6719l30.797 404.62c0.1875 2.5625 0.51562 5.1133 0.98438 7.6406l27.586 152.58c0.64453 3.6016 3.6758 6.293 7.3281 6.5117 3.6523 0.21484 6.9805-2.0977 8.0469-5.5977l121.22-397.34c1.5781-5.1641 1.5977-10.68 0.058594-15.855-1.5352-5.1797-4.5664-9.7891-8.707-13.254z"/>
  <path d="m798.75 772.15-72.656-130.27c-1.7617-3.1992-5.2812-5.0195-8.9102-4.6016s-6.6445 2.9844-7.6367 6.5l-134.72 468.75c-0.78125 2.7227-0.23438 5.6523 1.4688 7.9141 1.7031 2.2617 4.3711 3.5938 7.2031 3.5938h271.31c2.6719 0 5.207-1.1836 6.9219-3.2344 1.7148-2.0469 2.4336-4.7539 1.9609-7.3828l-58.336-322.8c-1.1719-6.4766-3.4062-12.719-6.6094-18.469z"/>
  <path d="m598.8 375.87-9.8906-278.44c-0.078124-2.5312-1.7891-4.7148-4.2266-5.3984-2.4375-0.67969-5.0352 0.30078-6.4141 2.4219-28.969 44.016-112.34 172.73-135.52 208.59-1.543 2.375-1.9961 5.293-1.2422 8.0234 0.75 2.7266 2.6367 5.0039 5.1797 6.25l137.84 67.969c3.1562 1.5508 6.8984 1.3125 9.8359-0.625 2.9336-1.9375 4.625-5.2852 4.4375-8.7969z"/>
 </g>
</svg>

<?xml version="1.0" encoding="UTF-8" standalone="no"?>
<!DOCTYPE svg PUBLIC "-//W3C//DTD SVG 1.1//EN" "http://www.w3.org/Graphics/SVG/1.1/DTD/svg11.dtd">
<svg width="100%" height="100%" viewBox="0 0 512 508" version="1.1" xmlns="http://www.w3.org/2000/svg" xmlns:xlink="http://www.w3.org/1999/xlink" xml:space="preserve" xmlns:serif="http://www.serif.com/" style="fill-rule:evenodd;clip-rule:evenodd;stroke-linejoin:round;stroke-miterlimit:2;">
    <g transform="matrix(1,0,0,1,-71.2688,-76.0493)">
        <g transform="matrix(0.484178,0,0,0.484178,36.762,39.2279)">
            <path d="M377.65,79.031C384.025,100.758 398.509,132.937 430.619,151.523C431.912,152.296 432.713,153.687 432.736,155.195C432.76,156.703 432.006,158.113 430.736,158.929C405.256,173.656 387.931,199.249 383.72,228.374C383.58,230.183 382.154,231.624 380.349,231.792C378.544,231.96 376.88,230.804 376.408,229.054C368.673,207.351 352.314,174.726 321.658,162.515C320.142,161.863 319.126,160.409 319.033,158.761C318.939,157.117 319.783,155.558 321.212,154.734C336.095,147.14 361.712,127.382 370.29,79.406C370.474,77.574 371.97,76.148 373.81,76.054C375.65,75.96 377.283,77.226 377.65,79.031L377.65,79.031Z" style="fill:white;fill-rule:nonzero;"/>
            <path d="M831.59,98.156C836.863,120.164 849.707,152.929 880.809,173.156C882.051,173.996 882.774,175.418 882.723,176.918C882.672,178.418 881.852,179.785 880.551,180.539C854.371,193.996 835.781,218.687 830.09,247.57C829.825,249.335 828.344,250.668 826.559,250.742C824.774,250.816 823.188,249.613 822.778,247.875C816.122,225.82 801.426,192.398 771.426,178.664C769.941,177.933 769.004,176.425 769.004,174.773C769.004,173.121 769.941,171.613 771.426,170.882C786.66,164.062 813.285,145.64 824.207,98.155C824.461,96.311 826.039,94.94 827.898,94.94C829.758,94.94 831.336,96.312 831.59,98.155L831.59,98.156Z" style="fill:white;fill-rule:nonzero;"/>
            <path d="M552.42,835.55L582.397,881.089C583.721,883.093 586.092,884.144 588.467,883.78C590.842,883.421 592.791,881.71 593.459,879.401L704.79,492.051L730.195,394.879C730.793,392.684 729.945,390.348 728.082,389.044C726.215,387.743 723.731,387.751 721.875,389.067L651.094,439.669C646.856,442.7 643.833,447.134 642.563,452.185C630.118,501.568 562.501,770.255 549.868,820.455C548.559,825.623 549.489,831.1 552.423,835.549L552.42,835.55Z" style="fill:white;fill-rule:nonzero;"/>
            <path d="M732.47,313.76L648.587,157.03C647.321,154.639 644.568,153.448 641.958,154.155C639.349,154.862 637.575,157.28 637.689,159.983L645.095,367.963C645.228,371.604 647.353,374.881 650.622,376.49C653.892,378.1 657.782,377.787 660.751,375.674L729.493,326.455C733.524,323.56 734.798,318.135 732.47,313.752L732.47,313.76Z" style="fill:white;fill-rule:nonzero;"/>
            <path d="M431.84,652.38L503.91,761.9C505.554,764.365 508.496,765.627 511.41,765.119C514.328,764.611 516.672,762.431 517.387,759.556L593.793,455.316C594.664,451.832 594.32,448.156 592.808,444.898C591.3,441.637 588.718,438.996 585.496,437.41L433.596,362.668C430.904,361.34 427.713,361.512 425.182,363.129C422.65,364.742 421.146,367.566 421.221,370.566L427.572,638.786C427.693,643.626 429.174,648.337 431.838,652.38L431.84,652.38Z" style="fill:white;fill-rule:nonzero;"/>
            <path d="M257.98,1123.9L341.769,1123.9C344.226,1123.9 346.539,1122.74 347.988,1120.75C349.441,1118.77 349.855,1116.21 349.105,1113.87L309.636,990.799C308.632,987.662 305.742,985.518 302.452,985.459C299.159,985.4 296.195,987.443 295.081,990.541L250.784,1113.61C249.941,1115.96 250.288,1118.57 251.718,1120.62C253.148,1122.67 255.483,1123.89 257.98,1123.9Z" style="fill:white;fill-rule:nonzero;"/>
            <path d="M1063.4,584.72L1107.28,440.91C1110.13,431.527 1109.57,421.437 1105.68,412.433L1006.07,182.093C1004.56,178.62 1001.82,175.831 998.369,174.273C994.92,172.714 991.014,172.495 987.412,173.659C983.811,174.824 980.772,177.288 978.885,180.57L849.815,405.76C847.655,409.537 846.893,413.955 847.659,418.24C848.428,422.525 850.674,426.4 854.01,429.197L1045.8,589.887C1048.62,592.258 1052.44,593.059 1055.98,592.023C1059.52,590.988 1062.31,588.25 1063.4,584.73L1063.4,584.72Z" style="fill:white;fill-rule:nonzero;"/>
            <path d="M412.76,708C410.807,705.039 407.354,703.434 403.834,703.852C400.311,704.27 397.326,706.637 396.119,709.969L332.369,889.029C330.143,895.271 330.026,902.072 332.041,908.388L398.439,1115.23C400.111,1120.41 404.943,1123.93 410.392,1123.92L513.802,1123.92C519.388,1123.91 524.298,1120.22 525.849,1114.85L570.122,960.803C571.888,954.674 570.888,948.08 567.38,942.756L412.76,708Z" style="fill:white;fill-rule:nonzero;"/>
            <path d="M206.25,443.37L323.44,357.659C327.381,354.788 330.081,350.53 330.995,345.741C331.909,340.952 330.967,335.995 328.362,331.878L229.221,174.848C226.432,170.418 221.565,167.731 216.33,167.731C211.095,167.731 206.228,170.418 203.439,174.848L89.299,359.228C86.818,363.24 85.983,368.056 86.971,372.669C87.959,377.278 90.69,381.333 94.596,383.978L182.815,443.767C186.284,446.126 190.401,447.353 194.596,447.283C198.791,447.212 202.865,445.845 206.252,443.368L206.25,443.37Z" style="fill:white;fill-rule:nonzero;"/>
            <path d="M202.57,1110.1L342.82,720.64C346.101,711.558 347.883,702.003 348.093,692.351L353.906,424.371C353.988,420.433 352.593,416.609 350,413.648C347.402,410.687 343.797,408.804 339.883,408.367C335.969,407.933 332.035,408.976 328.852,411.293L227.902,485.145C220.613,490.473 215.714,498.454 214.261,507.364L135.042,995.614C132.393,1012 131.905,1028.65 133.589,1045.16L139.635,1104.18C140.182,1109.59 142.717,1114.61 146.757,1118.25C150.792,1121.9 156.038,1123.91 161.48,1123.91L182.925,1123.91C187.221,1123.91 191.417,1122.59 194.933,1120.12C198.448,1117.65 201.116,1114.15 202.565,1110.11L202.57,1110.1Z" style="fill:white;fill-rule:nonzero;"/>
            <path d="M71.297,438.89L107.109,861.84C107.394,864.758 109.808,867.004 112.742,867.082C115.671,867.16 118.199,865.043 118.64,862.145L167.507,507.515C168.183,502.612 167.476,497.616 165.46,493.093C163.449,488.569 160.21,484.702 156.117,481.921L82.758,432.163C80.406,430.569 77.351,430.471 74.902,431.909C72.457,433.346 71.05,436.061 71.297,438.889L71.297,438.89Z" style="fill:white;fill-rule:nonzero;"/>
            <path d="M971.16,1123.9L1106.77,1123.9C1112.6,1123.91 1118.18,1121.6 1122.31,1117.47C1126.43,1113.35 1128.74,1107.77 1128.73,1101.94L1128.73,579.139C1128.75,575.487 1126.08,572.378 1122.47,571.842C1118.86,571.307 1115.41,573.506 1114.36,577.006L954.404,1101.26C952.775,1106.57 953.763,1112.34 957.072,1116.8C960.376,1121.27 965.607,1123.9 971.162,1123.9L971.16,1123.9Z" style="fill:white;fill-rule:nonzero;"/>
            <path d="M855.47,491.25C853.025,489.199 849.583,488.82 846.747,490.281C843.911,491.746 842.232,494.77 842.486,497.953L873.283,902.573C873.47,905.136 873.798,907.686 874.267,910.214L901.853,1062.79C902.498,1066.39 905.529,1069.09 909.181,1069.31C912.833,1069.52 916.162,1067.21 917.228,1063.71L1038.45,666.368C1040.03,661.204 1040.05,655.688 1038.51,650.513C1036.97,645.333 1033.94,640.724 1029.8,637.259L855.47,491.25Z" style="fill:white;fill-rule:nonzero;"/>
            <path d="M798.75,772.15L726.094,641.88C724.332,638.681 720.813,636.861 717.184,637.278C713.555,637.696 710.539,640.263 709.547,643.778L574.827,1112.53C574.046,1115.25 574.593,1118.18 576.296,1120.44C577.999,1122.7 580.667,1124.04 583.499,1124.04L854.809,1124.04C857.481,1124.04 860.016,1122.85 861.731,1120.8C863.446,1118.76 864.165,1116.05 863.692,1113.42L805.356,790.619C804.184,784.143 801.95,777.9 798.746,772.15L798.75,772.15Z" style="fill:white;fill-rule:nonzero;"/>
            <path d="M598.8,375.87L588.909,97.43C588.831,94.899 587.12,92.715 584.683,92.032C582.245,91.352 579.648,92.332 578.269,94.454C549.3,138.47 465.929,267.184 442.749,303.044C441.206,305.419 440.753,308.337 441.507,311.067C442.257,313.794 444.143,316.071 446.686,317.317L584.526,385.286C587.682,386.837 591.425,386.598 594.362,384.661C597.296,382.723 598.987,379.376 598.8,375.864L598.8,375.87Z" style="fill:white;fill-rule:nonzero;"/>
        </g>
    </g>
</svg>
